assets/icons/sellerIcon.svg

<svg width="44" height="44" viewBox="0 0 44 44" fill="none" xmlns="http://www.w3.org/2000/svg">
<rect width="44" height="44" rx="22" fill="#FBE2CF" fill-opacity="0.8"/>
<path d="M28.9112 11.5H15.0888L12.5 16.7364H31.5L28.9112 11.5Z" fill="#DD4619"/>
<path d="M26.9679 22.0097C27.4468 22.5107 28.1095 22.8253 28.8508 22.8253C29.1036 22.8253 29.3427 22.7778 29.5739 22.711V27.5212H20.5304V22.6794C20.917 22.5484 21.2674 22.3393 21.553 22.0554V17.6152H17.864V22.0404C18.2324 22.414 18.7062 22.675 19.2369 22.7761V31.1818H14.4261V22.7102C14.6573 22.777 14.8964 22.8244 15.1483 22.8244C15.8741 22.8244 16.5256 22.523 17.0002 22.0404V17.6152H12.5V20.1271C12.5 20.7889 12.7433 21.3874 13.1317 21.8576V31.841C13.1317 32.2048 13.4216 32.5001 13.7789 32.5001H30.2211C30.5784 32.5001 30.8683 32.2048 30.8683 31.841V21.8568C31.2567 21.3874 31.5 20.7889 31.5 20.1271V17.6152H26.9679V22.0097Z" fill="#DD4619"/>
<path d="M24.2834 22.8244C24.9936 22.8244 25.6322 22.5335 26.105 22.0686V17.6152H22.416V22.0273C22.8932 22.5186 23.5508 22.8244 24.2834 22.8244Z" fill="#DD4619"/>
<path d="M16.0202 28.1494C16.4801 28.1494 16.853 27.7697 16.853 27.3013C16.853 26.8328 16.4801 26.4531 16.0202 26.4531C15.5603 26.4531 15.1875 26.8328 15.1875 27.3013C15.1875 27.7697 15.5603 28.1494 16.0202 28.1494Z" fill="#DD4619"/>
</svg>

<svg xmlns="http://www.w3.org/2000/svg" width="44" height="44" fill="none" viewBox="0 0 44 44"><rect width="44" height="44" fill="#fbe2cf" fill-opacity=".8" rx="22"/><path fill="#dd4619" d="M28.911 11.5H15.09l-2.59 5.236h19zm-1.943 10.51a2.6 2.6 0 0 0 1.883.815c.253 0 .492-.047.723-.114v4.81H20.53V22.68c.387-.13.737-.34 1.023-.624v-4.44h-3.689v4.425c.368.374.842.635 1.373.736v8.406h-4.81V22.71c.23.067.47.114.721.114.726 0 1.378-.301 1.852-.784v-4.425h-4.5v2.512c0 .662.243 1.26.632 1.73v9.984c0 .364.29.66.647.66H30.22a.653.653 0 0 0 .647-.66v-9.984c.389-.47.632-1.068.632-1.73v-2.512h-4.532z"/><path fill="#dd4619" d="M24.283 22.824c.71 0 1.35-.29 1.822-.755v-4.454h-3.689v4.412a2.6 2.6 0 0 0 1.867.797M16.02 28.15a.84.84 0 0 0 .833-.849.84.84 0 0 0-.833-.848.84.84 0 0 0-.832.848.84.84 0 0 0 .832.848"/></svg>
